X:1
T:Quam pulchri sunt - Palestrina
T:#
%%score [ 1 2 3 4 ]
L:1/8
Q:1/4=200
M:none
K:C
V:1 treble nm="Soprano" snm="S"
V:2 treble nm="Alto" snm="A"
V:3 treble-8 nm="Tenor" snm="T"
V:4 bass nm="Bass" snm="B"
V:1
"^Quam pulchri sunt""^G. P. da Palestrina\n(1526-94)" z16 | z16 | z16 | z16 | z8 c8- | c8 B8 | %6
w: ||||Quam|* pul-|
 A8 G4 (c2 B2) |[M:4/2] (c2 d2 e8) (d4- | d2 c2) (c8 B4 | c2 B2 A2 G2) A8 | z8 c8 | B8 A8 | %12
w: chri sunt gres\- *|* * * sus|* * tu\- *|* * * * i,|quam|pul- chri|
 G4 (c2 B2 c2 d2 e4-) | e4 (d6 c2 c4- | c2 B2 B4) (G4 A4- | A2 G2 G8 ^F4) | G8 z4 d4- | %17
w: sunt gres\- * * * *|* sus * *|* * * tu\- *||i, fi\-|
 d2 B2 c4 d4 B4 | A4 f6 d2 e4- | (e2 d2) (d8 c2 B2 | c4) A4 (B2 A2 G2 F2 | E2 D2 E4 D4) d4- | %22
w: * li- a prin- ci-|pis, fi- li- a|* * prin\- * *|* ci- pis. * * *|* * * * Col\-|
 d4 B4 c8 | d8 z4 G4 | c4 c4 B4 A4 | (G2 A2 B2 G2 A2 B2 c4 | B4) A4 B8 | (G6 A2 B4) c4- | %28
w: * lum tu-|um si-|cut tur- ris e-|bur\- * * * * * *|* ne- a,|e\- * * bur\-|
 c4 B4 c8 | z4 A6 A2 B4 | c8 B4 G4 | B8 A4 (c4- | c4 B2 A2 G6 F2 | G4) (A8 G4) | A16 | z8 z4 A4- | %36
w: * ne- a.|O- cu- li|tu- i di-|vi- ni, di\-||* vi\- *|ni,|o\-|
 A2 A2 B4 c8 | B4 A4 B8 | (A6 B2 c4 d4- | d4 c4) d8 | z4 d4 c4 A4 | B6 c2 d4 (e4- | %42
w: * cu- li tu-|i di- vi\-||* * ni:|et co- mae|ca- pi- tis tu\-|
 e4 d2 c2 B2 c2 d2 B2 | c4 B4 A8) | B4 (e4 d4 c4-) | (c4 B4) c8 | z4 G4 A4 B4 | c8 d8 | %48
w: ||i, tu\- * *|* * i,|et co- mae|ca- pi-|
 G4 (g6 f2 e2 d2 | c2 d2 e4 c4 d4- | d2 c2 c8) B4 | z4 c4 A4 c4- | c2 c2 B4 A8- | A8 G8 | z16 | %55
w: tis tu\- * * *||* * * i,|si- cut pur\-|* pu- ra re\-|* gis,||
 d8 B4 c4- | c2 c2 B4 A8 | G4 (E2 F2 G2 A2 B2 G2 | A2 B2 c8 B4) | c8 z8 | z16 | G8 G8 | A8 B8 | %63
w: si- cut pur\-|* pu- ra re-|gis, re\- * * * * *||gis.||Quam pul-|chra es,|
 z4 G4 A4 c4 | (B4 A4 B2 c2 d2 B2 | c2 d2 e6 d2 c2 B2 | A2 G2 A4) G4 B4 | (c6 B2 A4) A4 | G8 z8 | %69
w: et quam de-|co\- * * * * *||* * * ra ca-|ris\- * * si-|ma,|
 z4 c4 c8 | d8 e8 | z4 c4 d4 f4 | (e4 d4 e6 d2 | c4 B4 A8) | G4 B4 (c6 B2) | A4 A4 (G6 F2 | %76
w: quam pul-|chra es,|et quam de-|co\- * * *||ra ca- ris\- *|* si- ma, *|
 E8) A8 | B4 d4 (c4 B4) | c4 e8 (d4- | d2 c2 c8) B4 | c16- | c16 | z4 (c8 B2 A2 | B4) c4 (A4 B4 | %84
w: * et|quam de- co\- *|ra ca- ris\-|* * * si-|ma.||Al\- * *|* le- lu\- *|
 c6 d2 e2 f2 g4- | g2 f2 e8 d4) | e16- | e8 z8 | z4 (c8 B2 A2) | B4 c4 (A4 B4) | c8 (B8- | %91
w: ||ia,||al\- * *|* le- lu\- *|ia, al\-|
 B4 A2 G2 A4) B4 | (G4 A4 B8 | A8) G4[Q:1/4=198] (c4- | %94
w: * * * * le-|lu\- * *|* ia, al\-|
[Q:1/4=194] c4[Q:1/4=192] B2[Q:1/4=190] A2[Q:1/4=187] B4)[Q:1/4=184] (A4- | %95
w: * * * * le\-|
[Q:1/4=181] A2[Q:1/4=180] G2)[Q:1/4=176] (G8[Q:1/4=171] ^F4) |[Q:1/4=170] G16 |] %97
w: * * lu\- *|ia.|
V:2
 z16 | z16 | G16 | F8 E8 | D8 z4 (F2 E2 | F2 G2 A6 G2 G4- | G4) ^F4 G8 |[M:4/2] (E6 F2 G4) (D2 E2 | %8
w: ||Quam|pul- chri|sunt gres\- *||* sus tu-|i, * * tu\- *|
 F2 E2 E2 DC D8 | E4 F6 E2 C4) | D8 z8 | G8 F8 | E4 (C2 D2 E2 F2 G4-) | (G2 F2 D4) E8 | %14
w: ||i,|quam pul-|chri sunt * * * *|* * * gres-|
 (D6 C2 B,4) (A,4 | B,4 G,4 A,8) | G,4 G6 E2 F4 | G4 E4 (D6 E2 | F2 G2 A4 D4) G4 | F4 D4 E4 E4 | %20
w: sus * * tu\-||i, fi- li- a|prin- ci- pis, *|* * * * fi-|li- a prin- ci-|
 A,8 z8 | z4 A8 F4 | G8 A8 | z4 D4 G4 G4 | F4 E4 (D2 E2 F2 D2) | E4 E4 D4 G4- | G4 (F4 E4) D4 | %27
w: pis.|Col- lum|tu- um|si- cut tur-|ris e- bur\- * * *|* ne- a, e\-|* bur\- * ne-|
 E8 z4 E4 | G4 G4 F4 E4 | (D2 E2 F2 D2 E2 F2 G4- | G4) ^F4 G8 | z16 | z16 | z16 | z4 E6 E2 F4 | %35
w: a, si-|cut tur- ris e-|bur\- * * * * * *|* ne- a.||||O- cu- li|
 G8 F4 D4 | (F8 E6 F2 | G4 A8 G4) | A8 z8 | z16 | z8 z4 C4 | D4 E4 F4 G4 | (C2 D2 E2 F2 G2 A2 B4) | %43
w: tu- i di-|vi\- * *||ni:||et|co- mae ca- pi-|tis * * * * * *|
 (A4 G8 ^F4 | G6 E2 F4 E4) | D8 C8 | z16 | z4 G4 F4 D4 | E6 F2 G4 (A4- | A4 G2 F2 E4 D4 | %50
w: tu\- * *||* i,||et co- mae|ca- pi- tis tu\-||
 E4 C4 D8) | C16 | z4 G4 E4 F4- | F2 F2 E4 (D8 | E4 A8 G4- | G4 F4 G4 E4) | D4 G8 ^F4 | %57
w: |i|si- cut pur\-|* pu- ra re\-|||gis, si- cut|
 (G6 =F2 E4) D4 | E4 (C4 D4 E4- | E2 D2 C2 B,2 A,2 B,2 C4- | C4 B,4 C8) | G,8 z4 C4 | C8 D8 | %63
w: pur\- * * pu-|ra re\- * *|||gis. Quam|pul- chra|
 E8 z4 C4 | D4 F4 (E4 D4) | (E6 F2 G4 A2 G2 | F2 E2 D2 C2 B,8) | z4 E4 (F2 E2 D2 C2 | %68
w: es, et|quam de- co\- *|ra * * * *||ca- ris\- * * *|
 B,2 C2 D4 C4) B,4 | C8 z4 F4 | F8 G8 | A8 z4 F4 | G4 _B4 (A4 G4 | A2 G2 G8 ^F4) | G4 G4 (A6 G2) | %75
w: * * * * si-|ma, quam|pul- chra|es, et|quam de- co\- *||ra ca- ris\- *|
 (F2 E2 D2 C2 B,4) B,4 | C4 E4 F4 A4 | (G6 FG A4) D4 | z4 (C2 D2 E2 F2 G4) | E4 F4 (G8 | %80
w: * * * * * si-|ma, et quam de-|co\- * * * ra|ca\- * * * *|ris- si- ma.|
 E8) z4 (A4- | A4 G2 F2 G4) A4 | (F4 G4 A8 | G4) (A8 G2 F2 | E8) G8- | G8 F8 | (E6 D2 E2 F2 G4- | %87
w: * Al\-|* * * * le-|lu\- * *|* ia, * *|* al\-|* le-|lu\- * * * *|
 G2 F2 E8 D4) | E8 z4 G4- | (G4 F2 E2 F4) G4 | (E4 F4) G8 | D8 D8 | (E4 D2 C2 B,2 G,2 G4- | %93
w: |ia, al\-|* * * * le-|lu\- * ia,|al- le-|lu\- * * * * *|
 G4 ^F4) G8 | z4 (G6 =F2 E4- | E4) C4 D8 | D16 |] %97
w: * * ia,|al\- * *|* le- lu-|ia.|
V:3
 c16 | B8 A8 | G4 (c2 B2 c2 d2 e4- | e4) (d6 c2 c4- | c4 B4) A8- | A8 G8 | (d8 e6 f2) | %7
w: Quam|pul- chri|sunt gres\- * * * *|* sus * *|* * tu\-|* i,|tu\- * *|
[M:4/2][K:treble-8] g8 G8 | z16 | c16 | B8 A8 | G8 z4 (c2 B2 | c2 d2 e6 d2 c4-) | c4 B4 c8 | %14
w: * i,||quam|pul- chri|sunt gres\- *||* sus tu-|
 G8 z4 d4- | d2 B2 c4 d8 | B4 G4 z8 | z16 | z4 d6 B2 c4 | d4 B4 A8 | z4 d8 B4 | (c8 d6 c2 | %22
w: i, fi\-|* li- a prin-|ci- pis,||fi- li- a|prin- ci- pis.|Col- lum|tu\- * *|
 B2 A2 B4) A4 c4- | c4 B4 e8 | A8 z4 d4 | g4 g4 f4 e4 | d4 d4 G4 (g4- | g2 f2 e4) (d4 c4) | d8 c8 | %29
w: * * * um si\-|* cut tur-|ris, si-|cut tur- ris e-|bur- ne- a, e\-|* * * bur\- *|ne- a.|
 z16 | z8 z4 d4- | d2 d2 e4 f8 | e4 d4 e8 | d4 (f8 e2 d2 | c6 B2 c4) (d4- | d4 ^c4) d8- | d8 z8 | %37
w: |O-|* cu- li tu-|i di- vi-|ni, di\- * *|* * * vi\-|* * ni,||
 z4 d6 d2 e4 | f8 e4 d4 | (e8 d6 e2 | f4 g8 ^f4) | g8 z8 | z8 z4 G4 | A4 B4 c4 d4 | G8 z4 g4 | %45
w: o- cu- li|tu- i di-|vi\- * *||ni:|et|co- mae ca- pi-|tis, et|
 f4 d4 e6 f2 | g4 (e6 d2 d4- | d2 c2 c8 B4) | c8 z8 | z16 | z8 g8 | e4 f6 f2 e4 | d8 c4 d4 | %53
w: co- mae ca- pi-|tis tu\- * *||i||si-|cut pur- pu- ra|re- gis, si-|
 A4 c6 c2 B4 | (c2 B2 A2 G2 F4 G4 | A8) G8 | z8 d8 | B4 c6 c2 B4 | A8 G8 | z4 c4 c8 | d8 e8 | %61
w: cut pur- pu- ra|re\- * * * * *|* gis,|si-|cut pur- pu- ra|re- gis.|Quam pul-|chra es,|
 z4 d4 e4 g4- | g4 ^f4 g4 G4 | c4 c4 A8 | z16 | c8 c8 | d8 e8 | z4 c4 d4 f4 | (e4 d4 e2 f2 g2 e2) | %69
w: et quam de\-|* co- ra ca-|ris- si- me,||Quam pul-|chra es,|et quam de-|co\- * * * * *|
 (f4 e6 d2 c4- | c2 B2 B2 A2) c8 | z4 A4 _B4 A4 | G8 z4 c4 | c8 d8 | e8 z4 c4 | d4 f4 e4 d4 | %76
w: |* * * * ra|ca- ris- si-|ma, quam|pul- chra|es, et|quam de- co- ra,|
 z4 c4 d4 f4 | (e4 d4) e4 g4 | (f4 e6 d2 B4 | c8) d8 | c8 z4 (f4- | f4 e2 d2 e4) f4 | (d4 e4 f8 | %83
w: et quam de-|co\- * ra ca-|ris\- * * *|* si-|ma. Al\-|* * * * le-|lu\- * *|
 e4 c4 d8) | (c6 BA G8) | z16 | z4 (c8 B2 A2 | B4) c4 (A4 B4) | (c6 d2 e8-) | e4 A4 (d4 G4) | %90
w: |ia, * * *||al\- * *|* le- lu\- *|ia, * *|* al- le\- *|
 A8 G8 | z16 | z4 (d8 c2 B2 | c4) d4 (B4 c4 | d12 c4 | B4 A2 G2 A8) | G16 |] %97
w: lu- ia,||al\- * *|* le- lu\- *|||ia.|
V:4
 z16 | z16 | z16 | z16 | z16 | z16 | z8 C8- |[M:4/2] C8 B,8 | A,8 G,8 | z4 (F,2 E,2 F,2 G,2 A,4- | %10
w: ||||||Quam|* pul-|chri sunt|gres\- * * * *|
 A,2 G,2 G,8) ^F,4 | (G,4 E,4 F,8 | C,16) | G,8 z8 | z4 G,6 E,2 F,4 | G,4 E,4 D,8 | D6 B,2 C4 (D4 | %17
w: * * * sus|tu\- * *||i,|fi- li- a|prin- ci- pis,|fi- li- a prin\-|
 G,4) A,4 D,8- | D,8 z8 | z8 z4 A,4- | A,4 F,4 G,8 | A,8 z4 D,4 | G,4 G,4 F,6 E,2 | D,4 D,4 C,8 | %24
w: * ci- pis.||Col\-|* lum tu-|um si-|cut tur- ris e-|bur- ne- a,|
 z16 | z16 | z8 z4 G,4 | C4 C4 B,4 A,4 | (G,2 A,2 B,2 G,2 A,2 B,2 C4) | (B,4 D4 C4 B,4 | %30
w: ||si-|cut tur- ris e-|bur\- * * * * * *|ne\- * * *|
 A,8) G,8- | G,8 z4 A,4- | A,2 A,2 B,4 C8 | B,4 A,4 (_B,8 | A,12 G,2 F,2 | E,8) D,8- | D,8 A,8 | %37
w: * a.|* O\-|* cu- li tu-|i di- vi\-||* ni,|* di-|
 (G,4 F,4 G,8) | D,8 z4 G,4- | G,2 G,2 A,4 _B,8 | A,4 G,4 A,8 | G,8 z8 | z16 | z16 | %44
w: vi\- * *|ni, o\-|* cu- li tu-|i di- vi-|ni:|||
 z4 C,4 D,4 E,4 | F,4 G,4 (C,6 D,2 | E,2 F,2 G,2 E,2 F,4) (G,4 | C,4 E,4 D,8) | C,8 C8 | %49
w: et co- mae|ca- pi- tis *|* * * * * tu\-||i si-|
 A,4 C6 C2 B,4 | A,8 G,8 | (A,6 G,2 F,4 C,4) | G,8 z8 | z8 G,8 | E,4 F,6 F,2 E,4 | (D,8 E,4 C,4 | %56
w: cut pur- pu- ra|re- gis,|re\- * * *|gis,|si-|cut pur- pu- ra|re\- * *|
 G,8) D,8 | z16 | z8 z4 G,4 | E,4 F,6 F,2 E,4 | D,8 C,4 (C4- | C2 B,A, B,4) C8 | A,8 G,8 | z16 | %64
w: * gis,||si-|cut pur- pu- ra|re- gis. Quam|* * * * pul-|chra es,||
 z16 | z8 z4 F,4 | F,8 G,8 | A,8 z4 F,4 | G,4 _B,4 (A,4 G,4) | (A,6 G,F, E,4 F,4 | D,8) C,4 C,4 | %71
w: |quam|pul- chra|es, et|quam de- co\- *||* ra ca-|
 F,4 F,4 D,8 | z16 | z16 | z8 F,8 | F,8 G,8 | A,8 z4 F,4 | G,4 _B,4 (A,4 G,4) | A,4 (C6 =B,2 G,4) | %79
w: ris- si- ma,|||quam|pul- chra|es, et|quam de- co\- *|ra ca\- * *|
 A,4 A,4 G,8 | A,8 F,4 F,4 | C,8 z8 | z16 | z16 | z4 (C8 B,2 A,2 | B,4) C4 (A,4 B,4) | %86
w: ris- si- ma,|ca- ris- si-|ma.|||Al\- * *|* le- lu\- *|
 (C6 B,2 A,4 G,2 F,2 | E,4) C,4 F,4 G,4 | C,8 z8 | z16 | z8 z4 (G,4- | G,4 F,2 E,2 F,4) G,4 | %92
w: ia, * * * *|* al- le- lu-|ia,||al\-|* * * * le-|
 (E,4 F,4) G,8 | z4 D,4 (E,4 C,4) | (G,12 C,4 | E,8 D,8) | G,16 |] %97
w: lu\- * ia,|al- le\- *|lu\- *||ia.|

